!!!COM: Palestrina, Giovanni Perluigi da
!!!OPR: Sacerdotes Domini
!!!OTL: Kyrie
**kern	**kern	**kern	**kern	**kern	**kern
*Ibass	*Ibarit	*Itenor	*Itenor	*Icalto	*Icant
!Bassus	!Baritone	!Tenor 2	!Tenor 1	!Altus	!Cantus
*clefF4	*clefF4	*clefGv2	*clefGv2	*clefG2	*clefG2
*k[]	*k[]	*k[]	*k[]	*k[]	*k[]
*G:mix	*G:mix	*G:mix	*G:mix	*G:mix	*G:mix
*M4/2	*M4/2	*M4/2	*M4/2	*M4/2	*M4/2
=1	=1	=1	=1	=1	=1
0r	0r	0r	0r	1.g	1r
.	.	.	.	.	[1dd
.	.	.	.	2g	.
=2	=2	=2	=2	=2	=2
0r	0r	0r	0r	2f	2dd]
.	.	.	.	2d	2dd
.	.	.	.	[1f	2cc
.	.	.	.	.	2a
=3	=3	=3	=3	=3	=3
0r	0r	0r	0r	2f]	1.cc
.	.	.	.	4e	.
.	.	.	.	4d	.
.	.	.	.	1e	.
.	.	.	.	.	4b
.	.	.	.	.	4a
=4	=4	=4	=4	=4	=4
1r	0r	0r	0r	2d	1b
.	.	.	.	1g	.
[1d	.	.	.	.	2.a
.	.	.	.	4f	.
.	.	.	.	4e	4g
=5	=5	=5	=5	=5	=5
2d]	0r	0r	0r	2.f	2a
2d	.	.	.	.	2b
.	.	.	.	4d	.
2c	.	.	.	2e	[1cc
2A	.	.	.	2f	.
=6	=6	=6	=6	=6	=6
1.c	0r	0r	0r	1.e	2cc]
.	.	.	.	.	4b
.	.	.	.	.	4a
.	.	.	.	.	2g
4B	.	.	.	4d	[2a
4A	.	.	.	4c	.
=7	=7	=7	=7	=7	=7
1B	1r	0r	0r	1d	2a]
.	.	.	.	.	2g#
2.A	[1c	.	.	2e	4a
.	.	.	.	.	4b
.	.	.	.	2a	4cc
4B	.	.	.	.	4dd
=8	=8	=8	=8	=8	=8
2c	2c]	0r	0r	1g	1ee
2C	2c	.	.	.	.
[1G	2B	.	.	2r	1dd
.	2G	.	.	[2g	.
=9	=9	=9	=9	=9	=9
1G]	1.B	1.d	0r	2g]	1r
.	.	.	.	2g	.
2.D	.	.	.	4f	[1ff
.	.	.	.	4d	.
.	4A	2d	.	[2f	.
4E	4G	.	.	.	.
=10	=10	=10	=10	=10	=10
1F	1A	2c	1r	4f]	2ff]
.	.	.	.	4e	.
.	.	2A	.	2.c	2ff
[1C	1G	[1c	[1e	.	2ee
.	.	.	.	4d	.
.	.	.	.	4e	4cc
.	.	.	.	4f	4dd
=11	=11	=11	=11	=11	=11
1C]	0r	2c]	2e]	1.g	4ee
.	.	.	.	.	4ff
.	.	4B	2e	.	1gg
.	.	4A	.	.	.
1G	.	1B	2d	.	.
.	.	.	2B	2d	2g
=12	=12	=12	=12	=12	=12
1D	0r	1A	1.d	0f	2.a
.	.	.	.	.	4g
2.F	.	1r	.	.	4a
.	.	.	.	.	4b
.	.	.	4c	.	[2cc
4G	.	.	4B	.	.
=13	=13	=13	=13	=13	=13
1A	1r	0r	1c	1e	4cc]
.	.	.	.	.	4b
.	.	.	.	.	1a
1E	2r	.	1B	2.e	.
.	[2e	.	.	.	2g#
.	.	.	.	4d	.
=14	=14	=14	=14	=14	=14
1F	2e]	0r	0r	2c	2a
.	2d	.	.	2A	1a
1E	2c	.	.	1e	.
.	2B	.	.	.	2g
=15	=15	=15	=15	=15	=15
1F	1A	2r	0r	1c	4f
.	.	.	.	.	4g
.	.	1f	.	.	4a
.	.	.	.	.	4b
1C	1G	.	.	2r	1cc
.	.	2e	.	2g	.
=16	=16	=16	=16	=16	=16
1r	0r	2d	1r	2f	2b
.	.	2c	.	2e	2a
1G	.	1B	2r	1d	[1dd
.	.	.	[2g	.	.
=17	=17	=17	=17	=17	=17
1D	0r	1A	2g]	2d	1dd]
.	.	.	2f	2d	.
2E	.	1r	2e	2c	1g
2G	.	.	2d	2B	.
=18	=18	=18	=18	=18	=18
2.C	2r	0r	1c	2.e	2r
.	1e	.	.	.	2.g
4D	.	.	.	4f	.
2E	.	.	1B	1g	.
.	.	.	.	.	4a
2G	2d	.	.	.	2b
=19	=19	=19	=19	=19	=19
2A	2c	1r	0r	2r	2cc
2B	2B	.	.	2d	2dd
2c	1A	2r	.	2e	1cc
2F	.	[2f	.	2f	.
=20	=20	=20	=20	=20	=20
1C	1G	2f]	0r	1g	1cc
.	.	2e	.	.	.
1F	2F	2d	.	1a	2r
.	2A	2c	.	.	2a
=21	=21	=21	=21	=21	=21
1G	4G	1B	2r	1d	2b
.	4A	.	.	.	.
.	4B	.	1g	.	2g
.	4G	.	.	.	.
1D	1d	1A	.	1r	1a
.	.	.	2f	.	.
=22	=22	=22	=22	=22	=22
1G	1B	[0G	2e	1g	1b
.	.	.	2d	.	.
1C	1e	.	1c	1g	1cc
=23	=23	=23	=23	=23	=23
0G	0d	0G]	0B	0g	0dd
=24	=24	=24	=24	=24	=24
1.c	0r	0r	0r	1r	0r
.	.	.	.	[1g	.
2B	.	.	.	.	.
=25	=25	=25	=25	=25	=25
2c	0r	0r	0r	2g]	2r
2d	.	.	.	2f	1dd
2B	.	.	.	2g	.
2A	.	.	.	[2a	2cc
=26	=26	=26	=26	=26	=26
2B	0r	0r	0r	2a]	2dd
2c	.	.	.	2g	1ee
2d	.	.	.	1f	.
2D	.	.	.	.	2dd
=27	=27	=27	=27	=27	=27
1A	0r	0r	0r	2e	1cc
.	.	.	.	1a	.
1E	.	.	.	.	1b
.	.	.	.	2g	.
=28	=28	=28	=28	=28	=28
1F	1.c	0r	0r	2f	1a
.	.	.	.	2e	.
1G	.	.	.	1d	1g
.	2B	.	.	.	.
=29	=29	=29	=29	=29	=29
0r	2c	0r	0r	2e	2a
.	1d	.	.	1f	2.b
.	.	.	.	.	4a
.	2c	.	.	2e	[2a
=30	=30	=30	=30	=30	=30
0r	1B	1.d	0r	1d	2a]
.	.	.	.	.	2g#
.	1A	.	.	2.e	2a
.	.	2c	.	.	2ee
.	.	.	.	4f	.
=31	=31	=31	=31	=31	=31
0r	2B	2d	0r	1g	2dd
.	1c	1e	.	.	4cc
.	.	.	.	.	4b
.	.	.	.	2c	2a
.	2B	2d	.	2d	2g
=32	=32	=32	=32	=32	=32
0r	1A	1c	1.e	2e	1cc
.	.	.	.	2c	.
.	1G	1B	.	1g	2r
.	.	.	2d	.	2g
=33	=33	=33	=33	=33	=33
0r	0r	2c	2e	0r	1a
.	.	1d	1f	.	.
.	.	.	.	.	2b
.	.	2c	2e	.	[2a
=34	=34	=34	=34	=34	=34
1r	0r	1B	1d	2r	2a]
.	.	.	.	2d	2g#
2r	.	1A	1c	2e	1a
2A	.	.	.	2f	.
=35	=35	=35	=35	=35	=35
2B	0r	0r	2d	2.g	2r
1c	.	.	1e	.	2g
.	.	.	.	4f	.
.	.	.	.	4e	2a
.	.	.	.	4c	.
2B	.	.	2d	[2g	2b
=36	=36	=36	=36	=36	=36
1A	2r	0r	1c	2g]	2cc
.	2c	.	.	2f#	2a
1G	2d	.	1B	2g	1b
.	2B	.	.	2g	.
=37	=37	=37	=37	=37	=37
2F	2c	0r	0r	2a	0r
2D	2.d	.	.	2f	.
2E	.	.	.	2g	.
.	4c	.	.	.	.
2F	[2c	.	.	2a	.
=38	=38	=38	=38	=38	=38
1D	2c]	2r	0r	1f	1r
.	2B	2d	.	.	.
1C	2c	2e	.	2.e	2r
.	2c	2c	.	.	2g
.	.	.	.	4f	.
=39	=39	=39	=39	=39	=39
1G	2B	2d	0r	1g	2.b
.	2G	2.e	.	.	.
.	.	.	.	.	4cc
2F#	2A	.	.	1r	2dd
.	.	4d	.	.	.
2G	2B	[2d	.	.	2dd
=40	=40	=40	=40	=40	=40
1E	1G	2d]	2r	1r	2ee
.	.	2c#	2e	.	2ee
1D	1r	2d	2f	2r	[1a
.	.	2d	2d	2a	.
=41	=41	=41	=41	=41	=41
1A	0r	2c	2e	2cc	1a]
.	.	2A	2.f	2cc	.
2G	.	2B	.	2b	1r
.	.	.	4e	.	.
2E	.	2c	[2e	2g	.
=42	=42	=42	=42	=42	=42
1F	0r	1A	2e]	2a	2r
.	.	.	2d	2A	1a
1E	.	1r	2e	2c	.
.	.	.	2e	2B	2g#
=43	=43	=43	=43	=43	=43
2F	0r	0r	2d	2A	2a
2G	.	.	2B	2d	2.b
2F	.	.	2c	2f	.
.	.	.	.	.	4a
2D	.	.	2d	2f	[2a
=44	=44	=44	=44	=44	=44
1E	2r	0r	1B	1e	2a]
.	1e	.	.	.	2g#
1F	.	.	1r	2A	2.a
.	2d	.	.	[2a	.
.	.	.	.	.	4b
=45	=45	=45	=45	=45	=45
1E	2.e	0r	0r	2a]	2cc
.	.	.	.	2g#	2b
.	4d	.	.	.	.
1r	2c	.	.	2a	2ee
.	2B	.	.	2b	2dd
=46	=46	=46	=46	=46	=46
2r	1A	2r	0r	1.cc	2ee
2F	.	1f	.	.	2ff
1C	1G	.	.	.	2gg
.	.	2e	.	2g	[2cc
=47	=47	=47	=47	=47	=47
1F	2.F	2.f	0r	2.a	2cc]
.	.	.	.	.	2a
.	4G	4e	.	4g	.
1F	1A	2d	.	1f	1a
.	.	2c	.	.	.
=48	=48	=48	=48	=48	=48
1G	1d	1B	2r	2r	2.b
.	.	.	1g	1d	.
.	.	.	.	.	4cc
1D	2r	1A	.	.	1dd
.	[2d	.	2f#	2d	.
=49	=49	=49	=49	=49	=49
1G	2d]	[0G	2.g	2.B	2dd
.	2d	.	.	.	2.g
.	.	.	4f	8A	.
.	.	.	.	8G	.
2C	2c	.	2e	1g	.
.	.	.	.	.	4a
2G	2B	.	2d	.	2b
=50	=50	=50	=50	=50	=50
2.C	0e	0G]	1c	0g	4cc
.	.	.	.	.	4dd
.	.	.	.	.	4ee
4D	.	.	.	.	4ff
2.E	.	.	[1B	.	2gg
.	.	.	.	.	2g
4F	.	.	.	.	.
=51	=51	=51	=51	=51	=51
[0G	[0d	[0G	0B]	[0g	2.b
.	.	.	.	.	4cc
.	.	.	.	.	1dd
=52	=52	=52	=52	=52	=52
0G]	0d]	0G]	0B	0g]	0dd
=53	=53	=53	=53	=53	=53
0r	0r	0r	0r	1.g	2.g
.	.	.	.	.	4a
.	.	.	.	.	4b
.	.	.	.	.	4cc
.	.	.	.	2f	[2dd
=54	=54	=54	=54	=54	=54
0r	0r	0r	0r	1e	2dd]
.	.	.	.	.	2cc
.	.	.	.	4d	2b
.	.	.	.	4e	.
.	.	.	.	4f	4a
.	.	.	.	4g	4b
=55	=55	=55	=55	=55	=55
1.c	0r	0r	0r	2a	4cc
.	.	.	.	.	4dd
.	.	.	.	4g	1ee
.	.	.	.	4f	.
.	.	.	.	2.g	.
2B	.	.	.	.	[2dd
.	.	.	.	4d	.
=56	=56	=56	=56	=56	=56
1A	0r	0r	0r	4f	4dd]
.	.	.	.	4e	4cc
.	.	.	.	4e	1cc
.	.	.	.	8d	.
.	.	.	.	8c	.
1G	.	.	.	1d	.
.	.	.	.	.	2b
=57	=57	=57	=57	=57	=57
2.C	1.c	0r	0r	4c	1.ee
.	.	.	.	4d	.
.	.	.	.	4e	.
4D	.	.	.	4f	.
4E	.	.	.	1g	.
4F	.	.	.	.	.
[2G	2B	.	.	.	2dd
=58	=58	=58	=58	=58	=58
2G]	1A	0r	0r	2.c	2r
2F	.	.	.	.	1cc
.	.	.	.	4d	.
1G	1G	.	.	4e	.
.	.	.	.	4f	.
.	.	.	.	[2g	2b
=59	=59	=59	=59	=59	=59
1D	2r	1.d	0r	2g]	1a
.	2A	.	.	2f#	.
2G	2B	.	.	2g	2.g
2C	2c	2c	.	2e	.
.	.	.	.	.	4a
=60	=60	=60	=60	=60	=60
1G	0d	1B	0r	2.d	4b
.	.	.	.	.	4cc
.	.	.	.	.	1dd
.	.	.	.	4e	.
1D	.	1A	.	4f	.
.	.	.	.	4g	.
.	.	.	.	[2a	2cc
=61	=61	=61	=61	=61	=61
1E	0r	2r	1.e	2a]	1b
.	.	2B	.	2g#	.
2A	.	2c	.	2a	2.a
2D	.	2d	2d	2f	.
.	.	.	.	.	4b
=62	=62	=62	=62	=62	=62
1A	1r	0e	1c	2e	4cc
.	.	.	.	.	4dd
.	.	.	.	1a	2.ee
1E	2r	.	1B	.	.
.	.	.	.	.	4dd
.	[2e	.	.	2g#	2b
=63	=63	=63	=63	=63	=63
1A	4e]	0r	2r	1a	4cc
.	4d	.	.	.	4dd
.	1c	.	2c	.	4ee
.	.	.	.	.	4ff
1G	.	.	2d	1r	1gg
.	2B	.	2e	.	.
=64	=64	=64	=64	=64	=64
1.F	2.A	1r	0f	1.a	1cc
.	4B	.	.	.	.
.	2c	2r	.	.	2.ff
2D	[2d	[2f	.	2a	.
.	.	.	.	.	4ee
=65	=65	=65	=65	=65	=65
1D	4d]	4f]	0r	0a	1dd
.	4e	4e	.	.	.
.	2f	1d	.	.	.
1A	1e	.	.	.	1ee
.	.	2c	.	.	.
=66	=66	=66	=66	=66	=66
2r	1d	2.B	1r	2g	1r
2.G	.	.	.	2d	.
.	.	4c	.	.	.
.	1r	2d	2r	2.g	1b
4F	.	.	.	.	.
4E	.	[2e	[2g	.	.
4D	.	.	.	4f	.
=67	=67	=67	=67	=67	=67
1C	0r	4e]	4g]	1e	1cc
.	.	4f	4f	.	.
.	.	2g	1e	.	.
1D	.	1f	.	2r	2.a
.	.	.	2d	[2a	.
.	.	.	.	.	4b
=68	=68	=68	=68	=68	=68
2.A	0r	1e	2.c	2a]	4cc
.	.	.	.	.	4dd
.	.	.	.	2a	2.ee
4B	.	.	4d	.	.
4c	.	1r	2e	2g	.
4B	.	.	.	.	4dd
4A	.	.	[2f	[2a	4cc
4G	.	.	.	.	4b
=69	=69	=69	=69	=69	=69
1F	1r	0r	4f]	4a]	1cc
.	.	.	4g	4g	.
.	.	.	2a	1f	.
1C	2r	.	1g	.	1cc
.	[2c	.	.	2e	.
=70	=70	=70	=70	=70	=70
1F	2c]	0r	1f	2.a	1cc
.	2A	.	.	.	.
.	.	.	.	4g	.
2D	2B	.	1r	2f	2r
2E	2c	.	.	2e	2cc
=71	=71	=71	=71	=71	=71
2F	2.d	1r	0r	4d	2a
.	.	.	.	4c	.
1G	.	.	.	4B	2.b
.	4c	.	.	4A	.
.	2B	2r	.	2G	.
.	.	.	.	.	4cc
2F#	2A	[2d	.	2A	[2dd
=72	=72	=72	=72	=72	=72
1G	2B	2d]	0r	1G	2dd]
.	2G	2B	.	.	2ee
2F	2.A	2c	.	1r	1ff
2D	.	2d	.	.	.
.	4B	.	.	.	.
=73	=73	=73	=73	=73	=73
1C	2.c	2.e	1r	1g	[0ee
.	4B	4d	.	.	.
1r	2A	2c	2r	2a	.
.	2G	2B	[2e	2b	.
=74	=74	=74	=74	=74	=74
0r	1A	2c	2e]	2a	1ee]
.	.	2A	2c	2cc	.
.	1G	2.B	2d	1b	2r
.	.	.	2e	.	[2dd
.	.	4c	.	.	.
=75	=75	=75	=75	=75	=75
1D	1F	2.d	2.f	2a	4dd]
.	.	.	.	.	8cc
.	.	.	.	.	8b
.	.	.	.	2a	2a
.	.	4c	4e	.	.
2G	1r	2B	2d	2g	2b
2A	.	2A	2c	4e	2cc
.	.	.	.	4f#	.
=76	=76	=76	=76	=76	=76
1G	2r	1B	[0d	4g	2.b
.	.	.	.	4a	.
.	2G	.	.	1g	.
.	.	.	.	.	4cc
1D	2A	1A	.	.	1dd
.	2d	.	.	2f#	.
=77	=77	=77	=77	=77	=77
0G	4d	0G	0d]	0g	0b
.	4c	.	.	.	.
.	4B	.	.	.	.
.	4A	.	.	.	.
.	2B	.	.	.	.
.	2B	.	.	.	.
==	==	==	==	==	==
*-	*-	*-	*-	*-	*-
!!!CDT: 1525/^1526/-1594/2/2
!!!OCY: Italia
!!!AGN: Mass (Canonic)
!!!AST: renaissance, vocal
!!!ASW: Motet (unidentified)
!!!PWK: Masses, Book 8
!!!RNB: Cadence finals: C
!!!YOR: Le Opere Complete, v. 24, p. 157
!!!YOO: Rome, Italy: Fratelli Scalera
!!!END: 1992//
!!!EED: John Miller
!!!YEC: Copyright 2000, John Miller
!!!YEN: United States of America
!!!YEM: Rights to all derivative electronic formats reserved.
!!!YEM: Refer to licensing agreement for further details.
!!!YEM: This file must be accompanied by the licensing agreement.
!!!YEM: A copy of the licensing agreement may be found at http://www.music-cog.ohio-state.edu/HumdrumDatabases/Palestrina/license.txt
!!!EMD: converted to Humdrum by Bret Aarden
